public/icons/destinations__icon.svg

<svg width="25" height="24" viewBox="0 0 25 24" fill="none" xmlns="http://www.w3.org/2000/svg">
    <path
        d="M3.59521 12H8.59521M3.59521 12C3.59521 16.9706 7.62465 21 12.5952 21M3.59521 12C3.59521 7.02944 7.62465 3 12.5952 3M8.59521 12H16.5952M8.59521 12C8.59521 16.9706 10.3861 21 12.5952 21M8.59521 12C8.59521 7.02944 10.3861 3 12.5952 3M16.5952 12H21.5952M16.5952 12C16.5952 7.02944 14.8044 3 12.5952 3M16.5952 12C16.5952 16.9706 14.8044 21 12.5952 21M21.5952 12C21.5952 7.02944 17.5658 3 12.5952 3M21.5952 12C21.5952 16.9706 17.5658 21 12.5952 21"
        stroke="#656267" strokeWidth="2.5" strokeLinecap="round" strokeLinejoin="round" />
</svg>

<svg xmlns="http://www.w3.org/2000/svg" width="25" height="24" fill="none"><path stroke="#656267" d="M3.595 12h5m-5 0a9 9 0 0 0 9 9m-9-9a9 9 0 0 1 9-9m-4 9h8m-8 0c0 4.97 1.791 9 4 9m-4-9c0-4.97 1.791-9 4-9m4 9h5m-5 0c0-4.97-1.79-9-4-9m4 9c0 4.97-1.79 9-4 9m9-9a9 9 0 0 0-9-9m9 9a9 9 0 0 1-9 9"/></svg>
